assets/icons/sun-line.svg

<svg width="16" height="16" viewBox="0 0 16 16" fill="none" xmlns="http://www.w3.org/2000/svg">
<g clip-path="url(#clip0_1819_9622)">
<path d="M7.9999 2.80013C8.32027 2.80013 8.5999 2.55355 8.5999 2.23319V1.0001C8.5999 0.668725 8.33127 0.400096 7.9999 0.400096C7.66853 0.400096 7.3999 0.668725 7.3999 1.0001V2.23319C7.3999 2.55355 7.67954 2.80013 7.9999 2.80013ZM11.6432 4.35711C11.8804 4.59425 12.2639 4.58454 12.5011 4.34742L13.3739 3.47485C13.6083 3.24049 13.6083 2.86048 13.3739 2.6261C13.1395 2.39171 12.7595 2.39174 12.5252 2.62615L11.6526 3.4989C11.4155 3.73608 11.4061 4.11995 11.6432 4.35711ZM3.49807 4.34676C3.72449 4.57313 4.09637 4.54966 4.32277 4.32327C4.54914 4.09691 4.57265 3.72511 4.34637 3.49867L3.4746 2.62629C3.24029 2.39182 2.86025 2.39175 2.62585 2.62615C2.3915 2.8605 2.39152 3.24047 2.6259 3.4748L3.49807 4.34676ZM7.9999 12.0001C10.2091 12.0001 11.9999 10.2093 11.9999 8.0001C11.9999 5.7909 10.2091 4.0001 7.9999 4.0001C5.7907 4.0001 3.9999 5.7909 3.9999 8.0001C3.9999 10.2093 5.7907 12.0001 7.9999 12.0001ZM14.9999 8.6001C15.3313 8.6001 15.5999 8.33147 15.5999 8.0001C15.5999 7.66873 15.3313 7.4001 14.9999 7.4001H13.7668C13.4464 7.4001 13.1999 7.67973 13.1999 8.0001C13.1999 8.32046 13.4464 8.6001 13.7668 8.6001H14.9999ZM2.23299 8.6001C2.55336 8.6001 2.79994 8.32046 2.79994 8.0001C2.79994 7.67973 2.55336 7.4001 2.23299 7.4001H0.999902C0.668531 7.4001 0.399902 7.66873 0.399902 8.0001C0.399902 8.33147 0.668532 8.6001 0.999903 8.6001H2.23299ZM2.6258 13.374C2.86024 13.6084 3.24034 13.6084 3.47475 13.3739L4.34652 12.502C4.57292 12.2755 4.54944 11.9036 4.32302 11.6772C4.09668 11.4508 3.72491 11.4273 3.49842 11.6535L2.62605 12.5248C2.3914 12.7592 2.39129 13.1395 2.6258 13.374ZM12.5252 13.3739C12.7595 13.6084 13.1396 13.6084 13.374 13.374C13.6083 13.1397 13.6083 12.7597 13.3739 12.5254L12.5017 11.6534C12.2753 11.4271 11.9034 11.4505 11.677 11.6769C11.4507 11.9033 11.4272 12.2751 11.6534 12.5015L12.5252 13.3739ZM7.9999 15.6001C8.33127 15.6001 8.5999 15.3315 8.5999 15.0001V13.767C8.5999 13.4466 8.32027 13.2001 7.9999 13.2001C7.67954 13.2001 7.3999 13.4466 7.3999 13.767V15.0001C7.3999 15.3315 7.66853 15.6001 7.9999 15.6001Z" fill="white"/>
</g>
<defs>
<clipPath id="clip0_1819_9622">
<rect width="16" height="16" fill="white" transform="matrix(1 0 0 -1 0 16)"/>
</clipPath>
</defs>
</svg>

<svg xmlns="http://www.w3.org/2000/svg" width="16" height="16" fill="none" data-c="1"><g clip-path="url(#a)"><path fill="#fff" d="M8 2.8c.32 0 .6-.246.6-.567V1a.6.6 0 1 0-1.2 0v1.233c0 .32.28.567.6.567m3.643 1.557c.237.237.62.228.858-.01l.873-.872a.6.6 0 1 0-.849-.849l-.872.873a.607.607 0 0 0-.01.858m-8.145-.01c.226.226.598.203.825-.024.226-.226.25-.598.023-.824l-.871-.873a.6.6 0 1 0-.85.849zM8 12a4 4 0 1 0 0-8 4 4 0 0 0 0 8m7-3.4a.6.6 0 1 0 0-1.2h-1.233c-.32 0-.567.28-.567.6s.246.6.567.6zm-12.767 0c.32 0 .567-.28.567-.6s-.247-.6-.567-.6H1a.6.6 0 1 0 0 1.2zm.393 4.774a.6.6 0 0 0 .849 0l.872-.872c.226-.227.202-.598-.024-.825s-.598-.25-.825-.024l-.872.872a.6.6 0 0 0 0 .849m9.9 0a.6.6 0 1 0 .848-.849l-.872-.872c-.227-.226-.599-.203-.825.024-.226.226-.25.598-.024.825zM8 15.6a.6.6 0 0 0 .6-.6v-1.233c0-.32-.28-.567-.6-.567s-.6.247-.6.567V15a.6.6 0 0 0 .6.6"/></g><defs><clipPath id="a"><path fill="#fff" d="M0 16h16V0H0z"/></clipPath></defs></svg>
